!!!OTL: Xiu hebao
!!!ARE: Asia, China,ÿSichuan, Xichang
!! II, 253, 1)
!!!SCT: C1506
!!!YEM: Copyright 1995, estate of Helmut Schaffrath.
**kern
*ICvox
*Ivox
*M2/4
*k[b-e-a-]
*E-:
{16cc
16b-
4cc
8ee-
=1
8b-
16cc
16ee-
8cc
8b-
=2
16g
16b-
16g
16f
8e-
8f
=3
16g
16b-
4.g}
=4
{8f
16e-
16f
8g
16b-
16g
=5
16f
16e-
4f
16g
16f
=6
8c
16c
16e-
8f
8e-
=7
16c
16B-
4.c}
==
!!!AGN: Xiaodiao
!!!AMT: simple duple
!!!AIN: vox
!!!EED: Helmut Schaffrath
!!!EEV: 1.0
*-
